src/img/products/products-hero-list-2.svg

<svg
 xmlns="http://www.w3.org/2000/svg"
 xmlns:xlink="http://www.w3.org/1999/xlink"
 width="35px" height="30px">
<path fill-rule="evenodd"  fill="rgb(146, 181, 73)"
 d="M34.728,1.585 C33.877,2.944 33.428,4.605 32.983,6.253 C31.672,11.96 30.385,15.847 20.71,14.866 C19.156,16.852 18.399,19.424 18.22,22.788 C18.371,24.662 18.511,26.840 18.322,29.366 C18.255,30.266 16.887,30.164 16.954,29.265 C17.280,24.914 16.574,21.680 15.535,19.290 C5.11,20.363 3.716,15.578 2.396,10.698 C1.950,9.49 1.500,7.388 0.651,6.30 C0.341,5.562 0.661,4.991 1.172,4.959 C7.975,4.531 16.173,6.490 16.678,14.390 C16.746,15.464 16.665,16.637 16.414,17.911 C16.671,18.424 16.915,18.979 17.139,19.578 C17.615,17.253 18.285,15.367 19.42,13.826 C19.85,13.472 17.301,8.25 21.276,4.67 C24.424,0.933 29.677,0.229 34.207,0.513 C34.747,0.548 35.25,1.157 34.728,1.585 L34.728,1.585 ZM14.889,17.977 C13.644,15.724 12.131,14.375 11.346,13.698 L11.345,13.699 C10.551,13.3 11.457,11.974 12.252,12.671 L12.250,12.672 C12.947,13.285 14.142,14.333 15.295,16.14 C15.881,8.334 8.854,6.114 2.346,6.277 C2.969,7.563 3.346,8.959 3.722,10.346 C4.866,14.575 5.991,18.725 14.890,17.977 L14.889,17.977 ZM20.117,11.932 C21.962,9.114 23.661,8.143 25.181,6.991 C25.895,6.449 26.720,7.536 26.6,8.78 C24.418,9.282 22.557,10.360 20.745,13.551 C29.410,14.199 30.523,10.89 31.657,5.898 C32.32,4.511 32.410,3.115 33.31,1.829 C26.313,1.662 19.282,4.25 20.118,11.931 L20.117,11.932 Z"/>
</svg>

<svg xmlns="http://www.w3.org/2000/svg" width="35" height="30"><path fill-rule="evenodd" fill="#92B549" d="M34.73 1.58c-.85 1.36-1.3 3.03-1.75 4.67-1.3 5.71-2.6 9.6-12.27 8.62-1.55 1.98-2.31 4.55-2.49 7.92.15 1.87.3 4.05.1 6.58-.07.9-1.43.8-1.37-.1.33-4.36-.38-7.59-1.41-9.98-10.43 1.07-11.82-3.71-13.14-8.6-.45-1.2-.9-3.3-1.75-4.39-.3-.74.01-1.3.52-1.34 6.8-.43 15 1.53 15.5 9.43.08 1.07 0 2.25-.26 3.52.26.51.5 1.07.73 1.67.47-2.33 1.14-4.21 2.28-5.75.43-.36-2.12-5.58 1.86-9.16 3.14-3.74 8.4-4.44 12.93-4.16.54.04 1.04.65.52 1.07Zm-19.84 16.4a15.29 15.29 0 0 0-3.54-4.28c-.8-.4.1-1.73.9-1.03.7.62 1.9 1.66 3.04 3.47.6-7.8-6.44-10.03-12.94-9.86.62 1.28 1 2.68 1.37 4.07 1.15 4.22 2.27 8.38 11.17 7.63Zm5.23-6.05c1.84-2.82 3.54-3.79 5.06-4.94.71-.54 1.54.55 1.42 1.79-2.18.5-4.04 1.58-5.86 4.77 8.67.65 9.78-2.66 10.92-7.65.66-1.39.75-2.79 1.65-4.07-7-.17-14.03 2.42-13.2 10.1Z"/></svg>
